src/lib/packages/icons/src/assets/filled/key-circle.svg

<svg width="24" height="24" viewBox="0 0 24 24" fill="none" xmlns="http://www.w3.org/2000/svg">
<path d="M12 2C6.477 2 2 6.477 2 12C2 17.523 6.477 22 12 22C17.523 22 22 17.523 22 12C22 6.477 17.523 2 12 2ZM13.5 13.5C13.195 13.5 12.9049 13.4551 12.6299 13.3701L11 15H9.5V16.5H7.5V14.5L10.6299 11.3701C10.5449 11.0951 10.5 10.805 10.5 10.5C10.5 8.845 11.845 7.5 13.5 7.5C15.155 7.5 16.5 8.845 16.5 10.5C16.5 12.155 15.155 13.5 13.5 13.5ZM14.77 10C14.77 10.414 14.435 10.75 14.02 10.75C13.606 10.75 13.2649 10.414 13.2649 10C13.2649 9.586 13.596 9.25 14.01 9.25H14.02C14.435 9.25 14.77 9.586 14.77 10Z" fill="currentColor"/>
</svg>

<svg xmlns="http://www.w3.org/2000/svg" width="24" height="24" fill="none"><path fill="currentColor" d="M12 2C6.477 2 2 6.477 2 12s4.477 10 10 10 10-4.477 10-10S17.523 2 12 2Zm1.5 11.5a2.93 2.93 0 0 1-.87-.13L11 15H9.5v1.5h-2v-2l3.13-3.13A3.002 3.002 0 0 1 13.5 7.5c1.655 0 3 1.345 3 3s-1.345 3-3 3Zm1.27-3.5a.75.75 0 0 1-.75.75.755.755 0 0 1-.755-.75c0-.414.331-.75.745-.75h.01a.75.75 0 0 1 .75.75Z"/></svg>
